assets/images/payment-method-icons/discover.svg

<svg fill="none" height="25" viewBox="0 0 39 25" width="39" xmlns="http://www.w3.org/2000/svg" xmlns:xlink="http://www.w3.org/1999/xlink"><linearGradient id="a" gradientUnits="userSpaceOnUse" x1="19.8375" x2="19.8375" y1="0" y2="24.0158"><stop offset="0" stop-color="#e96418"/><stop offset="1" stop-color="#f9a020"/></linearGradient><linearGradient id="b" gradientUnits="userSpaceOnUse" x1="20.7384" x2="19.0095" y1="14.5067" y2="11.794"><stop offset="0" stop-color="#ff9200"/><stop offset=".21" stop-color="#ff8d00"/><stop offset=".45" stop-color="#ff8000"/><stop offset=".62" stop-color="#ff7100"/><stop offset=".82" stop-color="#ff5e00"/><stop offset="1" stop-color="#ff5200"/></linearGradient><linearGradient id="c" gradientUnits="userSpaceOnUse" x1="20.463" x2="17.9395" y1="14.4724" y2="9.51957"><stop offset="0" stop-color="#ff7100" stop-opacity="0"/><stop offset=".03" stop-color="#ff6e00" stop-opacity=".03"/><stop offset=".21" stop-color="#ff5a00" stop-opacity=".25"/><stop offset=".39" stop-color="#ff4900" stop-opacity=".42"/><stop offset=".56" stop-color="#ff3c00" stop-opacity=".56"/><stop offset=".72" stop-color="#f30" stop-opacity=".66"/><stop offset=".86" stop-color="#ff2d00" stop-opacity=".72"/><stop offset=".98" stop-color="#ff2b00" stop-opacity=".74"/></linearGradient><clipPath id="d"><rect height="24.0158" rx="2.00132" width="38.025" x=".825012"/></clipPath><g clip-path="url(#d)"><rect fill="#fff" height="24.0158" rx="2.00132" width="38.025" x=".825012"/><path d="m.825012 0h38.025v24.0158h-38.025z" fill="url(#a)"/><path d="m.825026.853901v22.307999c0 .2265-.000014.8539-.000014.8539h.841588 23.3453c3.1386 0 6.1487-1.2648 8.3684-3.5162 2.2197-2.2513 3.4673-5.305 3.4684-8.4896 0-1.5771-.3062-3.13888-.901-4.596-.5949-1.45713-1.4668-2.7811-2.5659-3.89634-1.0992-1.11523-2.404-1.99988-3.8401-2.603444-1.4361-.603561-2.9753-.91420925-4.5298-.91420925h-23.3453c-.2232 0-.84158-.00000675-.84158-.00000675s.000006.627434.000006.853901z" fill="#fff"/><g fill="#261f20"><path d="m5.18524 10.1475h-1.35827v4.7211h1.33531c.61211.0338 1.21496-.1606 1.69115-.5454.26995-.2195.48806-.4957.63883-.8087.15078-.3131.2305-.6554.23352-1.0027 0-1.3919-1.03305-2.3643-2.54054-2.3643zm1.07896 3.5465c-.35574.2875-.81048.4245-1.26644.3813h-.24487v-3.127h.24487c.22589-.0228.45409-.0009.67144.0646.21735.0654.41956.1731.595.3167.16176.1503.29076.3321.37897.5341.0882.2021.13373.4201.13373.6405.00096.2228-.04407.4433-.13227.648s-.21769.3891-.38043.5418z"/><path d="m9.07639 10.1484h-.92209v4.7211h.92209z"/><path d="m11.3339 11.9595c-.5548-.2021-.7155-.3394-.7155-.5911s.2908-.5263.6887-.5263c.1447.0027.287.0384.4157.1046.1287.0661.2404.1608.3265.2768l.486-.6331c-.3833-.3402-.8796-.5264-1.3928-.5224-.1869-.0113-.3743.015-.5508.0776-.1765.0625-.3386.1598-.4765.2862-.13784.1264-.24873.2792-.32597.4493-.07725.1701-.11928.354-.12356.5407 0 .6483.29843.9839 1.16693 1.2927.2203.069.433.1597.6352.2708.0858.0494.1569.1206.2059.2064.0491.0857.0744.183.0734.2817-.0009.0915-.0204.1819-.0576.2655-.0371.0837-.091.1589-.1584.221-.0674.0622-.1468.1099-.2333.1404-.0866.0304-.1785.0429-.27.0367-.2109.0038-.4184-.0537-.5971-.1655-.1787-.1117-.3209-.2728-.4092-.4637l-.59688.572c.16707.2824.40719.5149.69528.6733.288.1583.6135.2366.9423.2267.2114.0142.4236-.0154.6229-.0871.1994-.0717.3816-.1838.5352-.3294.1536-.1455.2752-.3213.3571-.5161.0818-.1949.1222-.4045.1186-.6157 0-.7475-.31-1.0869-1.3621-1.472z"/><path d="m12.9905 12.5122c-.0031.3269.0597.6512.1847.9535s.3097.5765.5431.8063.5108.4105.8156.5314.6309.1795.9589.1723c.4002-.0053.7934-.1046 1.1478-.2898v-1.0678c-.1384.1604-.3098.2894-.5025.3782-.1927.0889-.4023.1354-.6147.1366-.215.0091-.4296-.0271-.6297-.1063-.2-.0792-.3811-.1996-.5313-.3533-.1502-.1536-.2662-.3372-.3404-.5386s-.105-.4161-.0902-.6301c-.0082-.2102.026-.4198.1005-.6165.0746-.1967.1881-.3765.3336-.5287.1456-.1522.3204-.2738.5139-.3574.1936-.0837.402-.1277.613-.1296.2185.0022.434.0509.6319.143.198.0921.3739.2254.5159.3909v-1.0716c-.3512-.1939-.7463-.295-1.1478-.2937-.3271-.0015-.6513.0613-.9541.1846-.3027.1234-.5782.305-.8105.5345-.2324.2294-.4171.5023-.5437.8029-.1265.3006-.1925.6232-.194.9492z"/><path d="m23.9715 13.3213-1.2626-3.1729h-1.0101l2.0125 4.8432h.4974l2.0432-4.8432h-.9986z"/><path d="m26.6727 14.8695h2.6171v-.797h-1.695v-1.2737h1.6338v-.8008h-1.6338v-1.0487h1.695v-.8009h-2.6171z"/><path d="m32.9514 11.5442c0-.8848-.6122-1.3958-1.6797-1.3958h-1.3697v4.7211h.9221v-1.9067h.1224l1.2779 1.9067h1.1479l-1.4922-1.9868c.315-.0472.6006-.2114.7992-.4597.1987-.2482.2959-.5622.2721-.8788zm-1.8557.7627h-.2716v-1.4148h.2869c.5739 0 .8877.2402.8877.7016 0 .4615-.3138.7284-.903.7284z"/><path d="m33.6855 10.3951c0-.0799-.0573-.1256-.1566-.1256h-.1336v.4149h.0992v-.1599l.1146.1599h.1222l-.1375-.1713c.027-.0054.051-.0203.0679-.042.0168-.0217.0252-.0486.0238-.076zm-.1757.0571v-.1066c.0497 0 .0764 0 .0764.0533s-.0267.0533-.0764.0533z"/><path d="m33.5481 10.1104c-.0765.025-.1431.0735-.1904.1385-.0472.065-.0726.1432-.0726.2235s.0254.1585.0726.2235c.0473.065.1139.1135.1904.1385.0765-.025.1431-.0735.1903-.1385s.0726-.1432.0726-.2235-.0254-.1585-.0726-.2235-.1138-.1135-.1903-.1385zm0 .6592c-.0791 0-.155-.0313-.2109-.087-.056-.0558-.0874-.1314-.0874-.2102s.0314-.1545.0874-.2102c.0559-.0557.1318-.0871.2109-.0871s.1549.0314.2108.0871c.056.0557.0874.1314.0874.2102s-.0314.1544-.0874.2102c-.0559.0557-.1317.087-.2108.087z"/></g><path d="m21.9628 12.5047c.0008.4951-.1459.9793-.4214 1.3912-.2755.412-.6675.7333-1.1263.9231-.4587.1898-.9637.2396-1.451.1432-.4872-.0964-.9348-.3347-1.286-.6848-.3513-.3501-.5904-.7962-.6871-1.2818s-.0467-.9889.1437-1.4462c.1905-.4573.5128-.848.9261-1.1225.4134-.2746.8991-.4208 1.3959-.4201.6643.001 1.3012.2645 1.771.7328.4697.4682.7341 1.1029.7351 1.7651z" fill="url(#b)"/><path d="m21.9628 12.5047c.0008.4951-.1459.9793-.4214 1.3912-.2755.412-.6675.7333-1.1263.9231-.4587.1898-.9637.2396-1.451.1432-.4872-.0964-.9348-.3347-1.286-.6848-.3513-.3501-.5904-.7962-.6871-1.2818s-.0467-.9889.1437-1.4462c.1905-.4573.5128-.848.9261-1.1225.4134-.2746.8991-.4208 1.3959-.4201.6643.001 1.3012.2645 1.771.7328.4697.4682.7341 1.1029.7351 1.7651z" fill="url(#c)" opacity=".65"/></g><rect height="23.0151" rx="1.50099" stroke="#000" stroke-opacity=".25" stroke-width="1.00066" width="37.0243" x="1.32534" y=".500329"/></svg>

<svg
		width="39"
		height="25"
		viewBox="0 0 39 25"
		fill="none"
		xmlns="http://www.w3.org/2000/svg"
>
	<g clip-path="url(#clip0_2196_13211)">
		<rect
				x="0.825012"
				width="38.025"
				height="24.0158"
				rx="2.00132"
				fill="white"
		/>
		<rect
				x="0.825012"
				width="38.025"
				height="24.0158"
				fill="url(#paint0_linear_2196_13211)"
		/>
		<path
				d="M0.825026 0.853901V23.1619C0.825026 23.3884 0.825012 24.0158 0.825012 24.0158C0.825012 24.0158 1.4434 24.0158 1.6666 24.0158H25.0119C28.1505 24.0158 31.1606 22.751 33.3803 20.4996C35.6 18.2483 36.8476 15.1946 36.8487 12.01C36.8487 10.4329 36.5425 8.87112 35.9477 7.414C35.3528 5.95687 34.4809 4.6329 33.3818 3.51766C32.2826 2.40243 30.9778 1.51778 29.5417 0.914216C28.1056 0.310655 26.5664 6.75019e-06 25.0119 6.75019e-06H1.6666C1.4434 6.75019e-06 0.82502 0 0.82502 0C0.82502 0 0.825026 0.627434 0.825026 0.853901Z"
				fill="white"
		/>
		<path
				d="M5.18524 10.1475H3.82697V14.8686H5.16228C5.77439 14.9024 6.37724 14.708 6.85343 14.3232C7.12338 14.1037 7.34149 13.8275 7.49226 13.5145C7.64304 13.2014 7.72276 12.8591 7.72578 12.5118C7.72578 11.1199 6.69273 10.1475 5.18524 10.1475ZM6.2642 13.694C5.90846 13.9815 5.45372 14.1185 4.99776 14.0753H4.75289V10.9483H4.99776C5.22365 10.9255 5.45185 10.9474 5.6692 11.0129C5.88655 11.0783 6.08876 11.186 6.2642 11.3296C6.42596 11.4799 6.55496 11.6617 6.64317 11.8637C6.73137 12.0658 6.7769 12.2838 6.7769 12.5042C6.77786 12.727 6.73283 12.9475 6.64463 13.1522C6.55643 13.3569 6.42694 13.5413 6.2642 13.694Z"
				fill="#261F20"
		/>
		<path
				d="M9.07639 10.1484H8.1543V14.8695H9.07639V10.1484Z"
				fill="#261F20"
		/>
		<path
				d="M11.3339 11.9595C10.7791 11.7574 10.6184 11.6201 10.6184 11.3684C10.6184 11.1167 10.9092 10.8421 11.3071 10.8421C11.4518 10.8448 11.5941 10.8805 11.7228 10.9467C11.8515 11.0128 11.9632 11.1075 12.0493 11.2235L12.5353 10.5904C12.152 10.2502 11.6557 10.064 11.1425 10.068C10.9556 10.0567 10.7682 10.083 10.5917 10.1456C10.4152 10.2081 10.2531 10.3054 10.1152 10.4318C9.97736 10.5582 9.86647 10.711 9.78923 10.8811C9.71198 11.0512 9.66995 11.2351 9.66567 11.4218C9.66567 12.0701 9.9641 12.4057 10.8326 12.7145C11.0529 12.7835 11.2656 12.8742 11.4678 12.9853C11.5536 13.0347 11.6247 13.1059 11.6737 13.1917C11.7228 13.2774 11.7481 13.3747 11.7471 13.4734C11.7462 13.5649 11.7267 13.6553 11.6895 13.7389C11.6524 13.8226 11.5985 13.8978 11.5311 13.9599C11.4637 14.0221 11.3843 14.0698 11.2978 14.1003C11.2112 14.1307 11.1193 14.1432 11.0278 14.137C10.8169 14.1408 10.6094 14.0833 10.4307 13.9715C10.252 13.8598 10.1098 13.6987 10.0215 13.5078L9.42462 14.0798C9.59169 14.3622 9.83181 14.5947 10.1199 14.7531C10.4079 14.9114 10.7334 14.9897 11.0622 14.9798C11.2736 14.994 11.4858 14.9644 11.6851 14.8927C11.8845 14.821 12.0667 14.7089 12.2203 14.5633C12.3739 14.4178 12.4955 14.242 12.5774 14.0472C12.6592 13.8523 12.6996 13.6427 12.696 13.4315C12.696 12.684 12.386 12.3446 11.3339 11.9595Z"
				fill="#261F20"
		/>
		<path
				d="M12.9905 12.5122C12.9874 12.8391 13.0502 13.1634 13.1752 13.4657C13.3002 13.768 13.4849 14.0422 13.7183 14.272C13.9517 14.5018 14.2291 14.6825 14.5339 14.8034C14.8387 14.9243 15.1648 14.9829 15.4928 14.9757C15.893 14.9704 16.2862 14.8711 16.6406 14.6859V13.6181C16.5022 13.7785 16.3308 13.9075 16.1381 13.9963C15.9454 14.0852 15.7358 14.1317 15.5234 14.1329C15.3084 14.142 15.0938 14.1058 14.8937 14.0266C14.6937 13.9474 14.5126 13.827 14.3624 13.6733C14.2122 13.5197 14.0962 13.3361 14.022 13.1347C13.9478 12.9333 13.917 12.7186 13.9318 12.5046C13.9236 12.2944 13.9578 12.0848 14.0323 11.8881C14.1069 11.6914 14.2204 11.5116 14.3659 11.3594C14.5115 11.2072 14.6863 11.0856 14.8798 11.002C15.0734 10.9183 15.2818 10.8743 15.4928 10.8724C15.7113 10.8746 15.9268 10.9233 16.1247 11.0154C16.3227 11.1075 16.4986 11.2408 16.6406 11.4063V10.3347C16.2894 10.1408 15.8943 10.0397 15.4928 10.041C15.1657 10.0395 14.8415 10.1023 14.5387 10.2256C14.236 10.349 13.9605 10.5306 13.7282 10.7601C13.4958 10.9895 13.3111 11.2624 13.1845 11.563C13.058 11.8636 12.992 12.1862 12.9905 12.5122Z"
				fill="#261F20"
		/>
		<path
				d="M23.9715 13.3213L22.7089 10.1484H21.6988L23.7113 14.9916H24.2087L26.2519 10.1484H25.2533L23.9715 13.3213Z"
				fill="#261F20"
		/>
		<path
				d="M26.6727 14.8695H29.2898V14.0725H27.5948V12.7988H29.2286V11.998H27.5948V10.9493H29.2898V10.1484H26.6727V14.8695Z"
				fill="#261F20"
		/>
		<path
				d="M32.9514 11.5442C32.9514 10.6594 32.3392 10.1484 31.2717 10.1484H29.902V14.8695H30.8241V12.9628H30.9465L32.2244 14.8695H33.3723L31.8801 12.8827C32.1951 12.8355 32.4807 12.6713 32.6793 12.423C32.878 12.1748 32.9752 11.8608 32.9514 11.5442ZM31.0957 12.3069H30.8241V10.8921H31.111C31.6849 10.8921 31.9987 11.1323 31.9987 11.5937C31.9987 12.0552 31.6849 12.3221 31.0957 12.3221V12.3069Z"
				fill="#261F20"
		/>
		<path
				d="M33.6855 10.3951C33.6855 10.3152 33.6282 10.2695 33.5289 10.2695H33.3953V10.6844H33.4945V10.5245L33.6091 10.6844H33.7313L33.5938 10.5131C33.6208 10.5077 33.6448 10.4928 33.6617 10.4711C33.6785 10.4494 33.6869 10.4225 33.6855 10.3951ZM33.5098 10.4522V10.3456C33.5595 10.3456 33.5862 10.3456 33.5862 10.3989C33.5862 10.4522 33.5595 10.4522 33.5098 10.4522Z"
				fill="#261F20"
		/>
		<path
				d="M33.5481 10.1104C33.4716 10.1354 33.405 10.1839 33.3577 10.2489C33.3105 10.3139 33.2851 10.3921 33.2851 10.4724C33.2851 10.5527 33.3105 10.6309 33.3577 10.6959C33.405 10.7609 33.4716 10.8094 33.5481 10.8344C33.6246 10.8094 33.6912 10.7609 33.7384 10.6959C33.7856 10.6309 33.811 10.5527 33.811 10.4724C33.811 10.3921 33.7856 10.3139 33.7384 10.2489C33.6912 10.1839 33.6246 10.1354 33.5481 10.1104ZM33.5481 10.7696C33.469 10.7696 33.3931 10.7383 33.3372 10.6826C33.2812 10.6268 33.2498 10.5512 33.2498 10.4724C33.2498 10.3936 33.2812 10.3179 33.3372 10.2622C33.3931 10.2065 33.469 10.1751 33.5481 10.1751C33.6272 10.1751 33.703 10.2065 33.7589 10.2622C33.8149 10.3179 33.8463 10.3936 33.8463 10.4724C33.8463 10.5512 33.8149 10.6268 33.7589 10.6826C33.703 10.7383 33.6272 10.7696 33.5481 10.7696Z"
				fill="#261F20"
		/>
		<path
				d="M21.9628 12.5047C21.9636 12.9998 21.8169 13.484 21.5414 13.8959C21.2659 14.3079 20.8739 14.6292 20.4151 14.819C19.9564 15.0088 19.4514 15.0586 18.9641 14.9622C18.4769 14.8658 18.0293 14.6275 17.6781 14.2774C17.3268 13.9273 17.0877 13.4812 16.991 12.9956C16.8943 12.51 16.9443 12.0067 17.1347 11.5494C17.3252 11.0921 17.6475 10.7014 18.0608 10.4269C18.4742 10.1523 18.9599 10.0061 19.4567 10.0068C20.121 10.0078 20.7579 10.2713 21.2277 10.7396C21.6974 11.2078 21.9618 11.8425 21.9628 12.5047Z"
				fill="url(#paint1_linear_2196_13211)"
		/>
		<path
				style="mix-blend-mode: 'multiply'"
		opacity="0.65"
		d="M21.9628 12.5047C21.9636 12.9998 21.8169 13.484 21.5414 13.8959C21.2659 14.3079 20.8739 14.6292 20.4151 14.819C19.9564 15.0088 19.4514 15.0586 18.9641 14.9622C18.4769 14.8658 18.0293 14.6275 17.6781 14.2774C17.3268 13.9273 17.0877 13.4812 16.991 12.9956C16.8943 12.51 16.9443 12.0067 17.1347 11.5494C17.3252 11.0921 17.6475 10.7014 18.0608 10.4269C18.4742 10.1523 18.9599 10.0061 19.4567 10.0068C20.121 10.0078 20.7579 10.2713 21.2277 10.7396C21.6974 11.2078 21.9618 11.8425 21.9628 12.5047Z"
		fill="url(#paint2_linear_2196_13211)"
		/>
	</g>
	<rect
			x="1.32534"
			y="0.500329"
			width="37.0243"
			height="23.0151"
			rx="1.50099"
			stroke="black"
			stroke-opacity="0.25"
			stroke-width="1.00066"
	/>
	<defs>
		<linearGradient
				id="paint0_linear_2196_13211"
				x1="19.8375"
				y1="0"
				x2="19.8375"
				y2="24.0158"
				gradientUnits="userSpaceOnUse"
		>
			<stop stop-color="#E96418" />
			<stop offset="1" stop-color="#F9A020" />
		</linearGradient>
		<linearGradient
				id="paint1_linear_2196_13211"
				x1="20.7384"
				y1="14.5067"
				x2="19.0095"
				y2="11.794"
				gradientUnits="userSpaceOnUse"
		>
			<stop stop-color="#FF9200" />
			<stop offset="0.21" stop-color="#FF8D00" />
			<stop offset="0.45" stop-color="#FF8000" />
			<stop offset="0.62" stop-color="#FF7100" />
			<stop offset="0.82" stop-color="#FF5E00" />
			<stop offset="1" stop-color="#FF5200" />
		</linearGradient>
		<linearGradient
				id="paint2_linear_2196_13211"
				x1="20.463"
				y1="14.4724"
				x2="17.9395"
				y2="9.51957"
				gradientUnits="userSpaceOnUse"
		>
			<stop stop-color="#FF7100" stop-opacity="0" />
			<stop offset="0.03" stop-color="#FF6E00" stop-opacity="0.03" />
			<stop offset="0.21" stop-color="#FF5A00" stop-opacity="0.25" />
			<stop offset="0.39" stop-color="#FF4900" stop-opacity="0.42" />
			<stop offset="0.56" stop-color="#FF3C00" stop-opacity="0.56" />
			<stop offset="0.72" stop-color="#FF3300" stop-opacity="0.66" />
			<stop offset="0.86" stop-color="#FF2D00" stop-opacity="0.72" />
			<stop offset="0.98" stop-color="#FF2B00" stop-opacity="0.74" />
		</linearGradient>
		<clipPath id="clip0_2196_13211">
			<rect
					x="0.825012"
					width="38.025"
					height="24.0158"
					rx="2.00132"
					fill="white"
			/>
		</clipPath>
	</defs>
</svg>
